svgs/light/folder-medical.svg

<svg xmlns="http://www.w3.org/2000/svg" viewBox="0 0 512 512"><!--! Font Awesome Pro 6.6.0 by @fontawesome - https://fontawesome.com License - https://fontawesome.com/license (Commercial License) Copyright 2024 Fonticons, Inc. --><path d="M32 96c0-17.7 14.3-32 32-32l124.1 0c8.5 0 16.6 3.4 22.6 9.4l35.9 35.9c12 12 28.3 18.7 45.3 18.7L448 128c17.7 0 32 14.3 32 32l0 256c0 17.7-14.3 32-32 32L64 448c-17.7 0-32-14.3-32-32L32 96zM64 32C28.7 32 0 60.7 0 96L0 416c0 35.3 28.7 64 64 64l384 0c35.3 0 64-28.7 64-64l0-256c0-35.3-28.7-64-64-64L291.9 96c-8.5 0-16.6-3.4-22.6-9.4L233.4 50.7c-12-12-28.3-18.7-45.3-18.7L64 32zM240 176c-17.7 0-32 14.3-32 32l0 32-32 0c-17.7 0-32 14.3-32 32l0 32c0 17.7 14.3 32 32 32l32 0 0 32c0 17.7 14.3 32 32 32l32 0c17.7 0 32-14.3 32-32l0-32 32 0c17.7 0 32-14.3 32-32l0-32c0-17.7-14.3-32-32-32l-32 0 0-32c0-17.7-14.3-32-32-32l-32 0zm0 32l32 0 0 48c0 8.8 7.2 16 16 16l48 0 0 32-48 0c-8.8 0-16 7.2-16 16l0 48-32 0 0-48c0-8.8-7.2-16-16-16l-48 0 0-32 48 0c4.2 0 8.3-1.7 11.3-4.7s4.7-7.1 4.7-11.3l0-48z"/></svg>

<svg xmlns="http://www.w3.org/2000/svg" viewBox="0 0 512 512"><!--! Font Awesome Pro 6.4.0 by @fontawesome - https://fontawesome.com License - https://fontawesome.com/license (Commercial License) Copyright 2023 Fonticons, Inc. --><path d="M32 96c0-17.7 14.3-32 32-32H188.1c8.5 0 16.6 3.4 22.6 9.4l35.9 35.9c12 12 28.3 18.7 45.3 18.7H448c17.7 0 32 14.3 32 32V416c0 17.7-14.3 32-32 32H64c-17.7 0-32-14.3-32-32V96zM64 32C28.7 32 0 60.7 0 96V416c0 35.3 28.7 64 64 64H448c35.3 0 64-28.7 64-64V160c0-35.3-28.7-64-64-64H291.9c-8.5 0-16.6-3.4-22.6-9.4L233.4 50.7c-12-12-28.3-18.7-45.3-18.7H64zM240 176c-17.7 0-32 14.3-32 32v32H176c-17.7 0-32 14.3-32 32v32c0 17.7 14.3 32 32 32h32v32c0 17.7 14.3 32 32 32h32c17.7 0 32-14.3 32-32V336h32c17.7 0 32-14.3 32-32V272c0-17.7-14.3-32-32-32H304V208c0-17.7-14.3-32-32-32H240zm0 32h32v48c0 8.8 7.2 16 16 16h48v32H288c-8.8 0-16 7.2-16 16v48H240V320c0-8.8-7.2-16-16-16H176V272h48c4.2 0 8.3-1.7 11.3-4.7s4.7-7.1 4.7-11.3V208z"/></svg>
